images/nanjcoin.svg

<svg height="250" viewBox="0 0 250 250" width="250" xmlns="http://www.w3.org/2000/svg"><g fill="#0c2342"><path d="m217.367188 179.53125-92.367188 54.535156v-36.367187l61.574219-36.347657v-109.070312l30.792969 18.175781zm-88.71875-70.847656h4.40625l22.429687 22.144531v-22.125h5.804687v32.625h-4.40625l-22.449218-22.40625v22.308594h-5.804688v-32.628907zm-14.085938 32.625-3.339844-7.125h-17.597656l-3.222656 7.125h-6.441406l15.714843-32.625h6.210938l15.914062 32.625zm-37.414062 0h-4.40625l-22.449219-22.40625v22.308594h-5.800781v-32.628907h4.421874l22.414063 22.148438v-22.128907h5.800781v32.628907zm47.851562-143.484375-107.695312 63.585937v127.171875l107.695312 63.585938 107.710938-63.585938v-127.171875zm0 0"/><path d="m96.476562 128.328125h12.160157l-5.988281-13.277344zm0 0"/></g></svg>

<svg xmlns="http://www.w3.org/2000/svg" xmlns:xlink="http://www.w3.org/1999/xlink" width="250px" height="250px" viewBox="0 0 250 250" version="1.1">
<g id="surface1">
<path style=" stroke:none;fill-rule:nonzero;fill:rgb(4.705882%,13.725491%,25.882354%);fill-opacity:1;" d="M 217.367188 179.53125 L 125 234.066406 L 125 197.699219 L 186.574219 161.351562 L 186.574219 52.28125 L 217.367188 70.457031 Z M 128.648438 108.683594 L 133.054688 108.683594 L 155.484375 130.828125 L 155.484375 108.703125 L 161.289062 108.703125 L 161.289062 141.328125 L 156.882812 141.328125 L 134.433594 118.921875 L 134.433594 141.230469 L 128.628906 141.230469 L 128.628906 108.601562 Z M 114.5625 141.308594 L 111.222656 134.183594 L 93.625 134.183594 L 90.402344 141.308594 L 83.960938 141.308594 L 99.675781 108.683594 L 105.886719 108.683594 L 121.800781 141.308594 Z M 77.148438 141.308594 L 72.742188 141.308594 L 50.292969 118.902344 L 50.292969 141.210938 L 44.492188 141.210938 L 44.492188 108.582031 L 48.914062 108.582031 L 71.328125 130.730469 L 71.328125 108.601562 L 77.128906 108.601562 L 77.128906 141.230469 Z M 125 -2.175781 L 17.304688 61.410156 L 17.304688 188.582031 L 125 252.167969 L 232.710938 188.582031 L 232.710938 61.410156 Z M 125 -2.175781 "/>
<path style=" stroke:none;fill-rule:nonzero;fill:rgb(4.705882%,13.725491%,25.882354%);fill-opacity:1;" d="M 96.476562 128.328125 L 108.636719 128.328125 L 102.648438 115.050781 Z M 96.476562 128.328125 "/>
</g>
</svg>
